X:1
T:Title
%%score 1 { 2 | 3 }
L:1/8
Q:1/4=105
M:6/8
K:F
V:1 treble nm="Grand Piano, Soprano"
V:2 bass nm="Choir Pad, Black Hills, 75.75.77.75"
V:3 bass 
V:1
 [CF]2 [EG] [FA]2 [Fd] | [Fc]2 [F=B] [Fc]3 | [CF]2 [CF] [FA]2 [FG] | [EG]6 | %4
w: By~Peter~Philip~Bilhorn,~1889 * * *||||
 [CF]2 [EG] [FA]2 [Fd] | [Fc]2 [F=B] [Fc]3 | F2 F [FA]2 [EG] | [CF]6 | [DB]2 [DB] [DB]2 [Fd] | %9
w: |||||
 [Fd]2 [Fc] .[Fc]3 | [Fc]2 [EB] [EB]2 [Bd] | [Ac]2 [GB] .[FA]3 | [FA]2 [FA] [FA]2 [FA] | %13
w: ||||
 [EB]2 [_Ec] [Dd]3 | [Fc]2 [FA] [CF]2 [CG] | [CF]6- | [CF]3 z3 |] %17
w: ||||
V:2
 A,2 C C2 B, | A,2 _A, =A,3 | A,2 A, =B,2 B, | C3 .B,3 | A,2 C C2 B, | A,2 _A, =A,3 | %6
 =B,2 B, C2 _B, | A,6 | B,2 B, B,2 B, | B,2 A, .A,3 | A,2[K:treble] C C2 C | C2 C .C3 | %12
 D2[K:bass] A, A,2 F, | G,2 F, F,3 | A,2 C A,2 B, | A,6- | A,3 z3 |] %17
V:3
 F,2 C, F,2 F, | F,2 F, F,3 | F,2 F, G,,2 G,, | C,6 | F,2 C, F,2 F, | F,2 F, F,3 | D,2 D, C,2 C, | %7
 F,6 | B,,2 B,, B,,2 B,, | F,2 F, .F,3 | F,2 G, G,2 C, | C,2 E, .F,3 | D,2 D, D,2 D, | .C,3 B,,3 | %14
 C,2 C, C,2 C, | F,6- | F,3 z3 |] %17

